X:32
T:GB/7b/32 The Lads of Kilkenny 
%%VWML:GB-7b-32-0
F:http://www.vwml.org/record/GB/7b/32
C:Transcribed by Simon Furey and Lewis Jones
L:1/4
M:3/4
I:linebreak $
K:Dmix
A | A A G/F/ | E/F/ G A | D =F E | D2 :| A/B/ | c c/B/ A |$ c c/B/ A/ A/ | d A D | G2 F/G/ | A A G/F/ | E/F/ G A | D =F E | D2 |]


